assets/icons/alert-24.svg

<svg width="24" height="24" viewBox="0 0 24 24" fill="none" xmlns="http://www.w3.org/2000/svg">
<path d="M10.4777 8.87519C10.4145 7.9912 11.1143 7.23928 12 7.23928C12.8858 7.23928 13.5855 7.9912 13.5224 8.8752L13.1706 13.8024C13.1268 14.4169 12.6157 14.893 12 14.893C11.3843 14.893 10.8733 14.4169 10.8294 13.8024L10.4777 8.87519Z" fill="#F2F2F2"/>
<path d="M13.0928 17.0798C13.0928 17.6836 12.6035 18.1731 12 18.1731C11.3965 18.1731 10.9073 17.6836 10.9073 17.0798C10.9073 16.4759 11.3965 15.9864 12 15.9864C12.6035 15.9864 13.0928 16.4759 13.0928 17.0798Z" fill="#F2F2F2"/>
<path fill-rule="evenodd" clip-rule="evenodd" d="M15.9096 4.41764C14.2988 1.19413 9.70124 1.19411 8.09039 4.41763L2.46711 15.6705C1.01394 18.5785 3.12733 22 6.37672 22L17.6233 22C20.8727 22 22.9861 18.5785 21.5329 15.6705L15.9096 4.41764ZM10.0452 5.39559C10.8506 3.78383 13.1494 3.78383 13.9548 5.39559L19.5781 16.6485C20.3047 18.1025 19.248 19.8132 17.6233 19.8132L6.37672 19.8132C4.75203 19.8132 3.69533 18.1025 4.42191 16.6485L10.0452 5.39559Z" fill="#F2F2F2"/>
</svg>

<svg xmlns="http://www.w3.org/2000/svg" width="24" height="24" viewBox="0 0 24 24"><path d="M10.478 8.875a1.527 1.527 0 113.044 0l-.351 4.927a1.174 1.174 0 01-2.342 0l-.351-4.927zm2.615 8.205a1.093 1.093 0 11-2.186 0 1.093 1.093 0 012.186 0z"/><path fill-rule="evenodd" d="M15.91 4.418c-1.611-3.224-6.209-3.224-7.82 0L2.467 15.67c-1.453 2.908.66 6.33 3.91 6.33h11.246c3.25 0 5.363-3.422 3.91-6.33L15.91 4.418zm-5.865.978c.806-1.612 3.104-1.612 3.91 0l5.623 11.252c.727 1.454-.33 3.165-1.955 3.165H6.377c-1.625 0-2.682-1.71-1.955-3.165l5.623-11.252z"/></svg>
